X:1
T:Esmerelda (The)
L:1/8
M:2/4
I:linebreak $
K:D
V:1 treble 
V:1
 A | d/e/f f/e/d | eB b>B | cA a>A | BA d>A | d/e/f f/e/d | eB b>B | cA bc | dd d ||[K:A] c/d/ |$ %10
 ecdB | c/e/(a a/)^g/a | befe | b>a ^g/f/e/d/ | ecdB | c/e/(a a/)^g/a | b e2 f/^g/ | aa a || %18
